X: 1
T: Katty's
M: 6/8
L: 1/8
R: jig
K: Dmaj
e|fed edB|~A3 AFA|BGB BdB|AFA Ade|
fed edB|~A3 AFA|Bcd Adf|gec d2:|
|:e|fdd add|~f3 fed|~A3 ~e3|gfe dBA|
fAA aAA|~f3 fed|Bcd Adf|gec d2:|
